X: 30242
M: 2/4
L: 1/16
K: Bb
|: Bc |\
def2 bfdf | efg2 bgeg | fedc BcdB | e2c2c2 Bc |\
def2 bfdf | efg2 bgeg | fedc BABc | d2B2B2 :|



